assets/shopping-cart.svg

<svg xmlns="http://www.w3.org/2000/svg" fill="none" viewBox="0 0 28 28">
  <path fill="#2A2238" d="M27.7318 4.09781c-.2564-.4633-.6493-.72917-1.0777-.72917H5.32902l-.27565-1.43356C4.83435.795535 4.07244 0 3.2004 0H.311111C.139378 0 0 .188173 0 .420029c0 .231857.139378.42003.311111.42003H3.2004c.58862 0 1.10288.537221 1.25097 1.306291L7.92493 20.2055c.03546.1852.15928.3146.30115.3146H24.4664c.172 0 .3111-.1877.3111-.42 0-.2323-.1391-.42-.3111-.42H8.46657l-.74604-3.8778H24.3027c.8413 0 1.5954-.761 1.8337-1.8498l1.8073-8.25312c.1216-.55444.0441-1.13828-.2119-1.60157Zm-.3848 1.36341-1.8073 8.25318c-.1611.735-.6695 1.2483-1.2373 1.2483H7.55906L5.49048 4.20911H26.6538c.2302 0 .4412.14281.579.39189.1378.24866.1795.562.1142.86022ZM8.47628 28c-1.1704 0-2.1224-1.2857-2.1224-2.8654 0-1.5798.95231-2.8655 2.1224-2.8655 1.1704 0 2.12272 1.2857 2.12272 2.8655C10.599 26.7143 9.64668 28 8.47628 28Zm0-4.8912c-.82724 0-1.50018.9085-1.50018 2.0253 0 1.1169.67294 2.0254 1.50018 2.0254.82724 0 1.50049-.9085 1.50049-2.0254 0-1.1168-.67325-2.0253-1.50049-2.0253ZM18.6807 28c-1.1704 0-2.1224-1.2857-2.1224-2.8654 0-1.5798.9523-2.8655 2.1224-2.8655 1.1707 0 2.1227 1.2857 2.1227 2.8655 0 1.5797-.9523 2.8654-2.1227 2.8654Zm0-4.8912c-.8272 0-1.5002.9085-1.5002 2.0253 0 1.1169.673 2.0254 1.5002 2.0254.8273 0 1.5005-.9085 1.5005-2.0254 0-1.1168-.6732-2.0253-1.5005-2.0253Z"/>
</svg>

<svg width="28" height="28" viewBox="0 0 28 28" fill="none" xmlns="http://www.w3.org/2000/svg">
<path d="M27.7318 4.09781C27.4754 3.63451 27.0825 3.36864 26.6541 3.36864H5.32902L5.05337 1.93508C4.83435 0.795535 4.07244 0 3.2004 0H0.311111C0.139378 0 0 0.188173 0 0.420029C0 0.651886 0.139378 0.840059 0.311111 0.840059H3.2004C3.78902 0.840059 4.30328 1.37728 4.45137 2.14635L7.92493 20.2055C7.96039 20.3907 8.08421 20.5201 8.22608 20.5201H24.4664C24.6384 20.5201 24.7775 20.3324 24.7775 20.1001C24.7775 19.8678 24.6384 19.6801 24.4664 19.6801H8.46657L7.72053 15.8023H24.3027C25.144 15.8023 25.8981 15.0413 26.1364 13.9525L27.9437 5.69938C28.0653 5.14494 27.9878 4.5611 27.7318 4.09781ZM27.347 5.46122L25.5397 13.7144C25.3786 14.4494 24.8702 14.9627 24.3024 14.9627H7.55906L5.49048 4.20911H26.6538C26.884 4.20911 27.095 4.35192 27.2328 4.601C27.3706 4.84966 27.4123 5.163 27.347 5.46122Z" fill="#2A2238"/>
<path d="M8.47628 28C7.30588 28 6.35388 26.7143 6.35388 25.1346C6.35388 23.5548 7.30619 22.2691 8.47628 22.2691C9.64668 22.2691 10.599 23.5548 10.599 25.1346C10.599 26.7143 9.64668 28 8.47628 28ZM8.47628 23.1088C7.64904 23.1088 6.9761 24.0173 6.9761 25.1341C6.9761 26.251 7.64904 27.1595 8.47628 27.1595C9.30352 27.1595 9.97677 26.251 9.97677 25.1341C9.97677 24.0173 9.30352 23.1088 8.47628 23.1088Z" fill="#2A2238"/>
<path d="M18.6807 28C17.5103 28 16.5583 26.7143 16.5583 25.1346C16.5583 23.5548 17.5106 22.2691 18.6807 22.2691C19.8514 22.2691 20.8034 23.5548 20.8034 25.1346C20.8034 26.7143 19.8511 28 18.6807 28ZM18.6807 23.1088C17.8535 23.1088 17.1805 24.0173 17.1805 25.1341C17.1805 26.251 17.8535 27.1595 18.6807 27.1595C19.508 27.1595 20.1812 26.251 20.1812 25.1341C20.1812 24.0173 19.508 23.1088 18.6807 23.1088Z" fill="#2A2238"/>
</svg>
